src/pos-icons/file-cog-outline.svg

<svg height="24" viewBox="0 0 24 24" width="24" xmlns="http://www.w3.org/2000/svg"><path d="m6 2c-1.11 0-2 .9-2 2v16c0 1.11.89 2 2 2h6v-2h-6v-16h7v5h5v3h2v-4l-6-6m4 12c-.13 0-.24.09-.26.21l-.19 1.32c-.3.13-.59.29-.85.47l-1.24-.5c-.11 0-.24 0-.31.13l-1 1.73c-.06.11-.04.24.06.32l1.06.82c-.02.17-.03.33-.03.5s.01.33.03.5l-1.06.82c-.09.08-.12.21-.06.32l1 1.73c.06.13.19.13.31.13l1.24-.5c.26.18.54.35.85.47l.19 1.32c.02.12.12.21.26.21h2c.11 0 .22-.09.24-.21l.19-1.32c.3-.13.57-.29.84-.47l1.23.5c.13 0 .26 0 .33-.13l1-1.73c.06-.11.03-.24-.06-.32l-1.07-.82c.02-.17.04-.33.04-.5s-.01-.33-.04-.5l1.06-.82c.09-.08.12-.21.06-.32l-1-1.73c-.06-.13-.19-.13-.32-.13l-1.23.5c-.27-.18-.54-.35-.85-.47l-.19-1.32c-.01-.12-.12-.21-.23-.21m-1 3.5c.83 0 1.5.67 1.5 1.5s-.67 1.5-1.5 1.5c-.84 0-1.5-.67-1.5-1.5s.67-1.5 1.5-1.5z"/></svg>

<?xml version="1.0" encoding="UTF-8"?><!DOCTYPE svg PUBLIC "-//W3C//DTD SVG 1.1//EN" "http://www.w3.org/Graphics/SVG/1.1/DTD/svg11.dtd"><svg xmlns="http://www.w3.org/2000/svg" xmlns:xlink="http://www.w3.org/1999/xlink" version="1.1" id="mdi-file-cog-outline" width="24" height="24" viewBox="0 0 24 24"><path d="M6 2C4.89 2 4 2.9 4 4V20C4 21.11 4.89 22 6 22H12V20H6V4H13V9H18V12H20V8L14 2M18 14C17.87 14 17.76 14.09 17.74 14.21L17.55 15.53C17.25 15.66 16.96 15.82 16.7 16L15.46 15.5C15.35 15.5 15.22 15.5 15.15 15.63L14.15 17.36C14.09 17.47 14.11 17.6 14.21 17.68L15.27 18.5C15.25 18.67 15.24 18.83 15.24 19C15.24 19.17 15.25 19.33 15.27 19.5L14.21 20.32C14.12 20.4 14.09 20.53 14.15 20.64L15.15 22.37C15.21 22.5 15.34 22.5 15.46 22.5L16.7 22C16.96 22.18 17.24 22.35 17.55 22.47L17.74 23.79C17.76 23.91 17.86 24 18 24H20C20.11 24 20.22 23.91 20.24 23.79L20.43 22.47C20.73 22.34 21 22.18 21.27 22L22.5 22.5C22.63 22.5 22.76 22.5 22.83 22.37L23.83 20.64C23.89 20.53 23.86 20.4 23.77 20.32L22.7 19.5C22.72 19.33 22.74 19.17 22.74 19C22.74 18.83 22.73 18.67 22.7 18.5L23.76 17.68C23.85 17.6 23.88 17.47 23.82 17.36L22.82 15.63C22.76 15.5 22.63 15.5 22.5 15.5L21.27 16C21 15.82 20.73 15.65 20.42 15.53L20.23 14.21C20.22 14.09 20.11 14 20 14M19 17.5C19.83 17.5 20.5 18.17 20.5 19C20.5 19.83 19.83 20.5 19 20.5C18.16 20.5 17.5 19.83 17.5 19C17.5 18.17 18.17 17.5 19 17.5Z" /></svg>
